timer-edit.svg

<svg fill="currentColor" viewBox="0 0 24 24"><path d="M15 3H9V1h6zm4.39 7.74L11 19.13v2.81c-4.5-.5-8-4.31-8-8.94a9 9 0 0 1 9-9c2.12 0 4.07.74 5.62 2l1.42-1.44c.51.44.96.9 1.41 1.41l-1.42 1.42c.64.8 1.14 1.72 1.47 2.71-.4.11-.79.32-1.11.64M13 7h-2v7h2zm0 12.96V22h2.04l6.13-6.12-2.04-2.05zm9.85-6.49-1.32-1.32c-.2-.2-.53-.2-.72 0l-.98.98 2.04 2.04.98-.98c.2-.19.2-.52 0-.72"/></svg>

<svg  viewBox="0 0 24 24" fill="currentColor"><path  d="M15 3H9V1H15V3M19.39 10.74L11 19.13V21.94C6.5 21.44 3 17.63 3 13C3 8.03 7.03 4 12 4C14.12 4 16.07 4.74 17.62 6L19.04 4.56C19.55 5 20 5.46 20.45 5.97L19.03 7.39C19.67 8.19 20.17 9.11 20.5 10.1C20.1 10.21 19.71 10.42 19.39 10.74M13 7H11V14H13V7M13 19.96V22H15.04L21.17 15.88L19.13 13.83L13 19.96M22.85 13.47L21.53 12.15C21.33 11.95 21 11.95 20.81 12.15L19.83 13.13L21.87 15.17L22.85 14.19C23.05 14 23.05 13.67 22.85 13.47Z"/></svg>
